static/assets/images/exchanges/ramses.svg

<svg width="384" height="256" viewBox="0 0 384 256" fill="none" xmlns="http://www.w3.org/2000/svg">
<path d="M222.229 2.29041L203.573 88.0301H180L175.979 69.5338L173.003 55.6564L160.96 0.370384C181.408 -0.493626 201.888 0.157048 222.229 2.29041ZM162.997 88.0301L132.405 3.52775C118.507 5.63978 104.875 9.18115 91.712 14.0985L125.771 69.5338L137.099 88.0301H162.997ZM341.451 106.537L354.933 143.551H261.365L264.405 106.537H341.451ZM375.509 199.061H256.725L259.776 162.047H361.984L375.509 199.061ZM347.157 256H251.701L255.861 218.752H384L347.157 256ZM132.299 256H36.8427L0 218.752H128.139L132.299 256ZM122.613 143.54L119.584 106.537H42.3147L28.896 143.551H122.624L122.613 143.54ZM127.253 199.061H8.448L21.9093 162.047H124.224L127.275 199.061H127.253ZM284.053 27.8907L292.085 14.9412C292.085 14.9412 275.445 10.4505 250.197 6.36512L220.587 88.0301H246.496L258.027 69.5445L266.731 55.667L284.053 27.8907ZM306.517 27.8907L265.173 88.0301H333.056L310.432 27.8907H306.517ZM118.4 88.0301L77.0667 27.8907H73.152L50.528 88.0301H118.4Z" fill="#C6FAFD"/>
</svg>

<svg xmlns="http://www.w3.org/2000/svg" fill="none" viewBox="0 0 384 256"><path fill="#C6FAFD" d="m222.229 2.29-18.656 85.74H180l-4.021-18.496-2.976-13.878L160.96.37a418 418 0 0 1 61.269 1.92m-59.232 85.74L132.405 3.528a203.7 203.7 0 0 0-40.693 10.57l34.059 55.436 11.328 18.496zm178.454 18.507 13.482 37.014h-93.568l3.04-37.014zm34.058 92.524H256.725l3.051-37.014h102.208zM347.157 256h-95.456l4.16-37.248H384zm-214.858 0H36.843L0 218.752h128.139zm-9.686-112.46-3.029-37.003h-77.27l-13.418 37.014h93.728zm4.64 55.521H8.448l13.461-37.014h102.315l3.051 37.014zm156.8-171.17 8.032-12.95s-16.64-4.49-41.888-8.576l-29.61 81.665h25.909l11.531-18.485 8.704-13.878zm22.464 0-41.344 60.14h67.883l-22.624-60.14zM118.4 88.03 77.067 27.89h-3.915L50.528 88.03z"/></svg>
